icon-svg/npo.svg

<svg xmlns="http://www.w3.org/2000/svg" viewBox="0 0 24 24"><path fill="#44739e" d="m12.974 5.382-.674-.673a.45.45 0 0 0-.191-.113.5.5 0 0 0-.128-.019.4.4 0 0 0-.169.035.5.5 0 0 0-.15.1l-.673.673a.44.44 0 0 0-.124.4.4.4 0 0 0 .066.161.4.4 0 0 0 .058.071l.673.674a.5.5 0 0 0 .19.113.5.5 0 0 0 .214.011.44.44 0 0 0 .233-.124l.675-.674a.45.45 0 0 0 .124-.4.4.4 0 0 0-.066-.161.5.5 0 0 0-.058-.074m8.579 5.532-8.467-8.449a1.545 1.545 0 0 0-2.172 0l-8.467 8.451a1.54 1.54 0 0 0 0 2.17l8.467 8.449a1.546 1.546 0 0 0 2.172 0l8.467-8.451a1.54 1.54 0 0 0 0-2.17M8.175 12.1a.44.44 0 0 1-.22.269.4.4 0 0 1-.165.049.44.44 0 0 1-.361-.129l-1.022-1.025-.338-.337a.5.5 0 0 0-.232-.124.4.4 0 0 0-.128-.006.5.5 0 0 0-.167.05.5.5 0 0 0-.109.08l-.674.674a.44.44 0 0 0-.115.444.5.5 0 0 0 .115.191l.336.336 1.019 1.021a.43.43 0 0 1 .128.272.4.4 0 0 1-.016.171.44.44 0 0 1-.219.269.4.4 0 0 1-.166.049.44.44 0 0 1-.36-.128l-1.023-1.018-.405-.4-.011-.01a1.24 1.24 0 0 1-.36-.876v-.059a1.2 1.2 0 0 1 .033-.235 1.3 1.3 0 0 1 .169-.385 1.3 1.3 0 0 1 .157-.192l.832-.831a1.23 1.23 0 0 1 .872-.359 1.27 1.27 0 0 1 .68.2 1.2 1.2 0 0 1 .192.157l.012.011.405.4 1.023 1.021a.43.43 0 0 1 .128.272.4.4 0 0 1-.01.178m2.782-3.257a1 1 0 0 1-.022.177 1.3 1.3 0 0 1-.117.338 1.2 1.2 0 0 1-.219.3l-.832.829a1.2 1.2 0 0 1-.2.161l-.073.044.435.441a.45.45 0 0 1 .131.315.6.6 0 0 1-.017.128.44.44 0 0 1-.221.268.4.4 0 0 1-.165.05.45.45 0 0 1-.361-.131l-1.278-1.278-.15-.15-.682-.68a1.24 1.24 0 0 1-.36-.874v-.059a1 1 0 0 1 .032-.235A1.4 1.4 0 0 1 7 8.156a1.3 1.3 0 0 1 .19-.244l.832-.831a1.22 1.22 0 0 1 .878-.358 1.3 1.3 0 0 1 .522.112 1.3 1.3 0 0 1 .354.244l.832.829a1.23 1.23 0 0 1 .347.7l.006.059a1 1 0 0 1 .007.119Zm2.818-2.358a1 1 0 0 1-.086.093l-.832.831a1.23 1.23 0 0 1-.935.357 1.2 1.2 0 0 1-.293-.049 1.25 1.25 0 0 1-.521-.308l-.831-.831a1.24 1.24 0 0 1-.36-.874v-.059a1 1 0 0 1 .035-.245 1.2 1.2 0 0 1 .134-.334 1.4 1.4 0 0 1 .191-.246l.831-.829a1.24 1.24 0 0 1 .874-.361v.01a1.3 1.3 0 0 1 .521.113 1.3 1.3 0 0 1 .354.247l.832.83a1.24 1.24 0 0 1 .086 1.651ZM9.879 8.471 9.206 7.8a.5.5 0 0 0-.192-.112.5.5 0 0 0-.128-.019h.005a.44.44 0 0 0-.319.132l-.672.668a.445.445 0 0 0 0 .63l.6.6.071.072a.45.45 0 0 0 .19.113.5.5 0 0 0 .128.019.45.45 0 0 0 .311-.129l.677-.674A.45.45 0 0 0 10 8.7a.4.4 0 0 0-.066-.161Z"/></svg>

<svg xmlns="http://www.w3.org/2000/svg" fill="#44739e" width="24" height="24" version="1.1" viewBox="0 0 24 24"><path d="M 12.974,5.382 12.3,4.709 A 0.448,0.448 0 0 0 12.109,4.596 0.508,0.508 0 0 0 11.981,4.577 v 0 a 0.426,0.426 0 0 0 -0.169,0.035 0.459,0.459 0 0 0 -0.15,0.1 l -0.673,0.673 a 0.443,0.443 0 0 0 -0.124,0.4 0.407,0.407 0 0 0 0.066,0.161 0.4,0.4 0 0 0 0.058,0.071 l 0.673,0.674 a 0.479,0.479 0 0 0 0.19,0.113 0.47,0.47 0 0 0 0.214,0.011 0.436,0.436 0 0 0 0.233,-0.124 l 0.675,-0.674 a 0.445,0.445 0 0 0 0.124,-0.4 0.407,0.407 0 0 0 -0.066,-0.161 0.51,0.51 0 0 0 -0.058,-0.074 z m 8.579,5.532 -8.467,-8.449 a 1.545,1.545 0 0 0 -2.172,0 l -8.467,8.451 a 1.54,1.54 0 0 0 0,2.17 l 8.467,8.449 a 1.546,1.546 0 0 0 2.172,0 l 8.467,-8.451 a 1.54,1.54 0 0 0 0,-2.17 z M 8.175,12.1 A 0.438,0.438 0 0 1 7.955,12.369 0.4,0.4 0 0 1 7.79,12.418 0.437,0.437 0 0 1 7.429,12.289 L 6.407,11.264 6.069,10.927 a 0.482,0.482 0 0 0 -0.232,-0.124 0.393,0.393 0 0 0 -0.128,-0.006 0.468,0.468 0 0 0 -0.167,0.05 0.451,0.451 0 0 0 -0.109,0.08 l -0.674,0.674 a 0.443,0.443 0 0 0 -0.115,0.444 0.48,0.48 0 0 0 0.115,0.191 l 0.336,0.336 1.019,1.021 a 0.434,0.434 0 0 1 0.128,0.272 0.4,0.4 0 0 1 -0.016,0.171 0.439,0.439 0 0 1 -0.219,0.269 0.4,0.4 0 0 1 -0.166,0.049 0.442,0.442 0 0 1 -0.36,-0.128 L 4.458,13.208 4.053,12.808 4.042,12.798 A 1.244,1.244 0 0 1 3.682,11.922 V 11.863 A 1.167,1.167 0 0 1 3.715,11.628 1.287,1.287 0 0 1 3.884,11.243 1.254,1.254 0 0 1 4.041,11.051 L 4.873,10.22 A 1.228,1.228 0 0 1 5.745,9.861 v 0 a 1.271,1.271 0 0 1 0.68,0.2 1.207,1.207 0 0 1 0.192,0.157 l 0.012,0.011 0.405,0.4 1.023,1.021 a 0.434,0.434 0 0 1 0.128,0.272 0.411,0.411 0 0 1 -0.01,0.178 z m 2.782,-3.257 a 0.952,0.952 0 0 1 -0.022,0.177 1.3,1.3 0 0 1 -0.117,0.338 1.2,1.2 0 0 1 -0.219,0.3 l -0.832,0.829 a 1.148,1.148 0 0 1 -0.2,0.161 c -0.024,0.015 -0.048,0.03 -0.073,0.044 l 0.435,0.441 a 0.445,0.445 0 0 1 0.131,0.315 0.555,0.555 0 0 1 -0.017,0.128 0.441,0.441 0 0 1 -0.221,0.268 0.417,0.417 0 0 1 -0.165,0.05 0.445,0.445 0 0 1 -0.361,-0.131 L 8.018,10.485 7.868,10.335 7.186,9.655 A 1.237,1.237 0 0 1 6.826,8.781 0.58,0.58 0 0 1 6.826,8.722 1.1,1.1 0 0 1 6.858,8.487 1.345,1.345 0 0 1 7,8.156 1.25,1.25 0 0 1 7.19,7.912 L 8.022,7.081 A 1.215,1.215 0 0 1 8.9,6.723 v 0 a 1.3,1.3 0 0 1 0.522,0.112 1.25,1.25 0 0 1 0.354,0.244 l 0.832,0.829 a 1.232,1.232 0 0 1 0.347,0.7 l 0.006,0.059 a 1.187,1.187 0 0 1 0.007,0.119 z M 13.775,6.485 A 1.088,1.088 0 0 1 13.689,6.578 L 12.857,7.409 A 1.231,1.231 0 0 1 11.922,7.766 1.167,1.167 0 0 1 11.629,7.717 1.246,1.246 0 0 1 11.108,7.409 L 10.277,6.578 A 1.237,1.237 0 0 1 9.917,5.704 V 5.645 A 1.065,1.065 0 0 1 9.952,5.4 1.164,1.164 0 0 1 10.086,5.066 1.375,1.375 0 0 1 10.277,4.82 L 11.108,3.991 A 1.238,1.238 0 0 1 11.982,3.63 V 3.64 A 1.282,1.282 0 0 1 12.503,3.753 1.26,1.26 0 0 1 12.857,4 l 0.832,0.83 a 1.242,1.242 0 0 1 0.086,1.651 z M 9.879,8.471 9.206,7.8 A 0.477,0.477 0 0 0 9.014,7.688 0.508,0.508 0 0 0 8.886,7.669 H 8.891 A 0.444,0.444 0 0 0 8.572,7.801 L 7.9,8.469 a 0.445,0.445 0 0 0 0,0.63 v 0 l 0.6,0.6 0.071,0.072 A 0.445,0.445 0 0 0 8.761,9.884 0.508,0.508 0 0 0 8.889,9.903 0.447,0.447 0 0 0 9.2,9.774 L 9.877,9.1 A 0.446,0.446 0 0 0 10,8.7 0.413,0.413 0 0 0 9.934,8.539 0.511,0.511 0 0 0 9.879,8.471 Z"/></svg>
